X: 1068
T: Amaryllis Schottische, The
R: barndance
M: 4/4
K: Gmajor
|:(3GBd|g2 d2 B2 (3GBg|f2 e2 c4|(3ded f>e c2 A2|(3ded g>d B2 (3GBd|
g2 d2 B2 (3Bcd|(3fgf e2 c2 ^c2|(3ded f>e d>c (3cBA|G2 g2 G2:|
|:G>^G|A2 d2 d>^cd>f|a2 f2 f>^ef>a|g2 e2 e>^de>g|f2 d2 d>^c (3dcB|
A2 d2 d>^c (3def|a2 f2 f>^e (3fga|1 g2 e2- e>g (3gfe|d2 ^c2 (3B^AB:|
[2 g2 e2 (3efg f>e|d2 ^c2 =c2||

